assets/icons/bell.svg

<svg width="25" height="25" viewBox="0 0 25 25" fill="none" xmlns="http://www.w3.org/2000/svg">
<g id="bell">
<path id="iconDefault" d="M21.4913 17.2793C20.9385 16.3281 20.1172 13.6455 20.1172 10.1562C20.1172 8.13605 19.3147 6.19859 17.8862 4.77009C16.4577 3.34159 14.5203 2.53906 12.5 2.53906C10.4798 2.53906 8.54238 3.34159 7.11388 4.77009C5.68538 6.19859 4.88286 8.13605 4.88286 10.1562C4.88286 13.6465 4.06059 16.3281 3.50786 17.2793C3.38659 17.487 3.32223 17.723 3.3213 17.9634C3.32036 18.2039 3.38288 18.4404 3.50254 18.649C3.62219 18.8576 3.79476 19.031 4.00281 19.1516C4.21087 19.2722 4.44706 19.3358 4.68755 19.3359H8.83599C8.9783 20.2045 9.42473 20.9943 10.0955 21.5641C10.7664 22.134 11.6179 22.4469 12.4981 22.4469C13.3783 22.4469 14.2298 22.134 14.9006 21.5641C15.5715 20.9943 16.0179 20.2045 16.1602 19.3359H20.3125C20.5529 19.3354 20.7888 19.2716 20.9966 19.1508C21.2044 19.0301 21.3767 18.8567 21.4961 18.6482C21.6155 18.4396 21.6779 18.2033 21.6768 17.9629C21.6758 17.7226 21.6124 17.4868 21.4913 17.2793ZM12.5 21.2891C11.9287 21.2889 11.374 21.096 10.9259 20.7416C10.4777 20.3871 10.1622 19.8919 10.0303 19.3359H14.9698C14.8379 19.8919 14.5224 20.3871 14.0742 20.7416C13.626 21.096 13.0714 21.2889 12.5 21.2891ZM20.4795 18.0664C20.4635 18.0963 20.4395 18.1212 20.4102 18.1385C20.3809 18.1557 20.3475 18.1645 20.3135 18.1641H4.68755C4.65359 18.1645 4.62015 18.1557 4.59088 18.1385C4.5616 18.1212 4.53762 18.0963 4.52153 18.0664C4.50439 18.0367 4.49536 18.003 4.49536 17.9688C4.49536 17.9345 4.50439 17.9008 4.52153 17.8711C5.26079 16.6016 6.05473 13.6416 6.05473 10.1562C6.05473 8.44685 6.73379 6.80746 7.94252 5.59873C9.15125 4.39 10.7906 3.71094 12.5 3.71094C14.2095 3.71094 15.8488 4.39 17.0576 5.59873C18.2663 6.80746 18.9454 8.44685 18.9454 10.1562C18.9454 13.6406 19.7403 16.5967 20.4795 17.8711C20.4967 17.9008 20.5057 17.9345 20.5057 17.9688C20.5057 18.003 20.4967 18.0367 20.4795 18.0664Z" fill="#18303F"/>
</g>
</svg>

<svg width="25" height="25" viewBox="0 0 25 25" fill="none"><g id="bell"><path id="iconDefault" d="M21.491 17.28c-.552-.952-1.374-3.635-1.374-7.124a7.617 7.617 0 0 0-15.234 0c0 3.49-.822 6.172-1.375 7.123a1.367 1.367 0 0 0 1.18 2.057h4.148a3.71 3.71 0 0 0 7.324 0h4.152a1.367 1.367 0 0 0 1.18-2.057ZM12.5 21.29a2.54 2.54 0 0 1-2.47-1.954h4.94a2.54 2.54 0 0 1-2.47 1.953Zm7.98-3.224a.185.185 0 0 1-.166.098H4.688a.186.186 0 0 1-.166-.098.195.195 0 0 1 0-.195c.739-1.27 1.533-4.23 1.533-7.715a6.445 6.445 0 0 1 12.89 0c0 3.485.795 6.44 1.535 7.715a.195.195 0 0 1 0 .195Z" fill="#18303F"/></g></svg>
